shader_type canvas_item;

void vertex() {
}

void fragment() {
	COLOR = vec4(0.5, 0.5, 0.5, 1.0);
}

//void light() {
	// Called for every pixel for every light affecting the material.
	// Uncomment to replace the default light processing function with this one.
//}
